X: 764
T: Ook Pik Waltz
C:Frankie Rodgers
B: jims roots
M:3/4
L:1/8
Q: 1/4=100
K:G
V:1 
%N:Jim Kendrick
(3DEF |: S G3"G"F GB | "D"A2 G2 ED | "G"E2 G3A | G2 B2 d2 | "Em"e3d ef | "C"e2 d2 (3BAG |
"G"B2 d3e | d4 Bd | "Em"e3d eg | "C"e2 d2 (3BAG | "G"B2 d2 BA | "Em"GF E2 D2 |
"C"C3B, CE | "D"D3 F ED | "G"E2 G3 OA |[1 "G"G4 (3DEF:| [2 "G"G2B2d2||
"Em"e2 B3A | B4 e2 | "Bm"d2 B3A | B4 B2 | "Am"A3G AB | A2 G2 ED |
"Em"E2 G2 A2 | G2 B2 d2 | e2 B3A | B4 fe | "Bm"d2 B3A | B4 B2 |
"Am"A3G AB | "Bm"A2 G2 ED | "C"E2 G2 E2 | "D"D4 (3DEF !D.S.!||
 O "G"G4z2|]
% abcbook-tune_id 6298c2790ee81ae9b707020f


% abcbook-boost 0
% abcbook-tablature 
% abcbook-transpose 
% abcbook-lastupdated 1654178426189
% abcbook-soundfonts 
% abcbook-repeats 1


